X:792
T:Ashley's Hornpipe. FK.17
M:4/4
L:1/8
Q:160
C:"MS 42 p.?"
S:Kidson's H'pipe MS,early 20thC.
R:Hornpipe
O:England
A:Leeds
N:
Z:vmp.John Bagnall
K:G
GABc edcB | agfe e2 d2 | BdBG cecA | BdBG GFED |!
 GABc edcB | agfe e2 d2| BdBA cecA |G2 F2 G4 :|:!
defg fafe | gbge fafd | defg afed | BdBG FAFD |!
 BdBG cecA | fafd gbge |dgfe dcBA | G2 F2 G4 |]


